X: 4395
M: 2/4
L: 1/8
K: D
d |\
cBAG | FEDd | cegb | (b2a)d |\
cBAG | FEDc | Bdca | d3 :: d |\
cBAG | FEDF | GBEc | d3 :|


